!!!!SEGMENT: pl-sa--481-a-viii-121--033_anonim--keyboard-piece.krn
!!!cenid: 18xx:404
!!!COM: Anonim
!!!COM-rismid: pe30004985
!!!CDT:
!!!CNT:
!!!OTL: [Keyboard piece]
!!!PDT:
!!!AGN: Secular
!!!SMS-siglum: PL-SA
!!!SMS-shelfmark: 481/A VIII 121
!!!SMS-shelfwork: 033 W
!!!SMS-variant:
!!!SMS-altvar:
!!!NIFC-rismid: 1001070704
!!!URL-scan: http://bc.bdsandomierz.pl/dlibra/publication/1212/edition/1171/content
!!!ONB-nifc: Str. 23, s. 1-3
!!!key:
**kern	**kern
*part1	*part1
*staff2	*staff1
*Ipiano	*Iempty
*I"Piano	*
*I'P-no	*
*clefF4	*clefG2
*k[]	*k[]
*G:	*G:
*M2/4	*M2/4
=1	=1
*Xtuplet	*Xtuplet
24G\LL	16aa\LL
24B\	.
.	16gg\J
24d\JJ	.
*rep	*
24G\LL	8gg\J
24B\	.
24d\JJ	.
*Xrep	*
*rep	*
24G\LL	8r
24B\	.
24d\JJ	.
*Xrep	*
*rep	*
24G\LL	8dd\
24B\	.
24d\JJ	.
*Xrep	*
=2	=2
24c>\LL	8ryy
24e>\	.
24g>\JJ	.
8ryy	24ee/LL
.	24gg/
.	24aa/JJ
24B>\LL	8ryy
24d>\	.
24g>\JJ	.
8ryy	24dd/LL
.	24gg/
.	24bb/JJ
=3	=3
32d>\LLL	8ryy
32f#X>\	.
32a>\	.
32cc>\JJJ	.
8ryy	32dd/LLL
.	32ff#y/
.	32aa/
.	32ccc/JJJ
4b> 4g>\	16bb/
.	16ddd/LL
.	16bb/
.	16gg/JJ
=4	=4
24c>\LL	8ryy
24e>\	.
24g>\JJ	.
8ryy	24ee/LL
.	24gg/
.	24aa/JJ
24B>\LL	8ryy
24d>\	.
24g>\JJ	.
8ryy	24dd/LL
.	24gg/
.	24bb/JJ
=5	=5
32d>\LLL	8ryy
32f#X>\	.
32a>\	.
32cc>\JJJ	.
8ryy	32dd/LLL
.	32ff#y/
.	32aa/
.	32ccc/JJJ
4b> 4g>\	16bb/LL
.	16ddd/
.	16bb/
.	16gg/JJ
!LO:LB:g=original	!LO:LB:g=original
=6	=6
4c\	16ee\LL
.	16ccc 16ee\
.	16bb 16dd\
.	16aaJJ 16cc\
!LO:TX:a:t=P:problem:mixed beam	!
8d\L	16aaLL 16cc\
.	16gg 16b\
8D/J	16gg 16b\
.	16ff#XJJ 16a\
=7	=7
4G\	16r
.	16ggLL 16b\
.	16gg 16b\
.	16ggJJ 16b\
4G\	16ggLL 16b\
.	16aa 16cc\
.	16aa 16cc\
.	16bbJJ 16dd\
=8	=8
2ryy	16r
.	16ggLL 16b\
.	16gg 16b\
.	16ggJJ 16b\
.	16ggLL 16b\
.	16aa 16cc\
.	16aa 16cc\
.	16bbJJ 16dd\
=9	=9
8E\L	8ccc\L
8G\J	8gg\J
8E\L	16ff\LL
.	16ee\
8C\J	16dd\
.	16cc\JJ
=10	=10
4FF\	4f\
4BB\	4b\
4D\	4dd\
4B\	4gg\
4r	8r
.	8g 8e/
=11	=11
8CC/L	8.gL 8.e/
8C/J	.
.	16aJk 16f/
*rep	*
8CC/L	16gLL 16e/
.	16a 16f/
8C/J	16b 16d/
.	16ccJJ 16e/
*Xrep	*
=12	=12
8CC/L	8.ccL 8.e/
8C/J	.
!	!LO:N:vis=16
.	32bLL 32g/
!	!LO:N:vis=16
.	32aJJJ 32f/
*rep	*
8CC/L	8g 8e/
8C/J	16r
.	16g 16e/
*Xrep	*
!LO:LB:g=original	!LO:LB:g=original
=13	=13
.	16qqg/
!LO:TX:a:t=P:problem:mixed beam	!
8GG/L	8.fL 8.d/
8G\J	.
.	16fJk 16d/
8CC/L	16eLL 16c/
.	16g 16e/
8C/J	16cc/
.	16eJJ 16c/
=14	=14
8G\L	8eL 8c/
8D\J	8dJ 8B/
8GG/	8r
8r	16r
.	16g 16e/
=15	=15
8CC/L	8.gL 8.e/
8C/J	.
.	16aJk 16f/
*rep	*
8CC/L	16gLL 16e/
.	16a 16f/
8C/J	16b 16d/
.	16ccJJ 16e/
*Xrep	*
=16	=16
*rep	*
8CC/L	8.ccL 8.e/
8C/J	.
.	32bLL 32g/
.	32aJJJ 32f/
8CC/L	8g 8e/
*Xrep	*
*rep	*
8C/J	16r
.	16g 16e/
*Xrep	*
=17	=17
!LO:TX:a:t=P:problem:mixed beam	!
8FF/L	16gLL 16e/
.	16a 16f/
8F\J	16ff 16a/
.	16ddJJ 16f/
!LO:TX:a:t=P:problem:mixed beam	!
8GG/L	16ddLL 16f/
.	16cc 16e/
8G\J	16cc 16e/
.	16bJJ 16d/
=18	=18
8C/L	4b 4d/
8GG/J	.
!	!LO:N:vis=2
4CC/	4cc 4e/
=:|!;;	=:|!;;
*-	*-
!!!system-decoration: {s1,s2}
!!!RDF**kern: > = above
!!!AIN: 1 piano
!!!ENC: Marta Lawrence
!!!END: 2020-11-22
!!!ENC: Tomasz Grochalski
!!!END: 2020-06-14
